resources/haticons/SVG/delicious.svg

<!-- Generated by IcoMoon.io -->
<svg version="1.1" xmlns="http://www.w3.org/2000/svg" width="24" height="24" viewBox="0 0 24 24">
<title>delicious</title>
<path d="M0 0v24h24v-24h-24zM12 22.5v-10.5h-10.5v-10.5h10.5v10.5h10.5v10.5h-10.5z"></path>
</svg>

<svg xmlns="http://www.w3.org/2000/svg" width="24" height="24"><path d="M0 0v24h24V0H0zm12 22.5V12H1.5V1.5H12V12h10.5v10.5H12z"/></svg>
